X:1
T:Title
%%score ( 1 2 ) { 3 | 4 }
L:1/8
Q:1/4=99
M:4/4
K:Eb
V:1 treble nm="Grand Piano, Soprano"
V:2 treble 
V:3 bass nm="Choir Pad, The Judgment Day"
V:4 bass 
V:1
 E[EF] [EG]2 [EG]2 [EG]>[EF] | E>[EG] [GB]2 [AB]2 [GB]2 | E[EF] [EG]>[EG] [EG]>[EG] [EB]2 | %3
w: By~Haldor~Lillenas * * * * *|||
 [EG]2 [DF]6 | E[EF] [EG]2 [EG]2 [EG]>[EF] | E>[EG] [GB]2 [GB]2 [Ac]2 | %6
w: |||
 [Ae][Ae] [GB]>[GB] [GB]>E [EG]2 | [DF]2 E6 | [GB][GB] [Ge]>[Ge] [Ae]>[Ae] [Ge]2 | %9
w: |||
 [Ac]2 B2- [AB]2 B2 | [GB][GB] [Ge]>[Ge] [Ae]>[Ae] [Ge]2 | [Ac]2 d2- [Ad-]2 [Ad]2 | %12
w: |||
 [AB][AB] [Ge]>[Ge] [Ge]>[Ge] [Gd]2 | GG [Ec]>[Ec] [Ec]>[Ec] [EB]2 | %14
w: ||
 [Ge][Ge] [GB]>[GB] [GB]>E [EG]2 | [DF]2 E6- | E2 z2 z4 |] %17
w: |||
V:2
 x8 | x8 | x8 | x8 | x8 | x8 | x8 | x8 | x8 | z2 G2 z4 | x8 | z2 A2 z4 | x8 | x8 | x8 | x8 | x8 |] %17
V:3
 G,A, B,2 B,2 B,>A, | G,>B,[K:treble] E2 D2 E2 | G,A,[K:bass] B,>B, B,>B, G,2 | B,2 B,6 | %4
 G,A, B,2 B,2 B,>A, | G,>B,[K:treble] E2 E2 E2 | CC E>E[K:bass] B,>G, B,2 | A,2 G,6 | %8
 B,B, B,>B,[K:treble] C>C B,2 | E2 E2 D2 E2 | EE[K:bass] B,>B, C>C B,2 | B,2 B,2 B,2 B,2 | %12
 B,B, B,>B, C>C =B,2 | =B,B, C>C A,>A, _B,2 | B,B, E>E B,>G, B,2 | A,2 G,6- | G,2 z2 z4 |] %17
V:4
 E,E, E,2 E,2 E,>E, | E,>E, E,2 F,2 E,2 | E,E, E,>E, E,>E, E,2 | E,2 B,,6 | E,E, E,2 E,2 E,>E, | %5
 E,>E, E,2 E,2 A,,2 | A,,A,, B,,>B,, B,,>B,, B,,2 | B,,2 E,6 | E,E, E,>E, E,>E, E,2 | %9
 E,2 E,2 F,2 G,2 | E,E, E,>E, E,>E, E,2 | E,2 F,2 F,2 B,,2 | D,D, E,>E, C,>C, G,F, | %13
 E,D, C,>C, z2 G,2 | E,E, E,>E, E,>E, B,,2 | B,,2 E,6- | E,2 z2 z4 |] %17

